X: 41691
T: Valchiusella
R: mazurka
M: 3/4
K: Aminor
A>B|:c2 c>B c>d|c>B A2 c2|e2 ee ee|f2 e4|
A2 B2 e2|d>c B4|e>f e>d c>B|c2 A2 A>B|
c2 c>B c>d|c>B A2 c2|e2 ee ee|f2 e4|
A2 B2 e2|d>c B4|e>f e>d c>B|1 A2 A2 B>c:|2 A2 A4||
|:a2 a2 g2|f>e d4|d2 f2 a2|g2 e4|
A2 B2 e2|d>c B4|e>f e>d c>B|c2 A4|
a2 a2 g2|f>e d4|d2 f2 a2|g2 e4|
A2 B2 e2|d>c B4|e>f e>d c>B|A2 A4:|

